X:1
T:Make Christ Your King
T:Nellie Place Chandler, 1907
T:Make Christ Your King
T:Public Domain
T:Public Domain
T:Public Domain
T:Public Domain
C:Nellie Place Chandler, 1907
Z:Public Domain
%%score ( 1 2 ) ( 3 4 )
L:1/8
M:4/4
K:Ab
V:1 treble 
V:2 treble 
V:3 bass 
V:4 bass 
V:1
 [CE]2 | [CA]>[CG] [CF]>[CE] [CF]>[CE] [A,C]>[CE] | [CA]>[CG] [CF]>[CE] [DG]3 [CE] | %3
w: 1.~O|youth, with life be- fore you, and with|glad- ness all a- round, While|
w: 2.~True|wis- dom you are seek- ing; no one|ev- er sought in vain Who|
w: 3.~Cour-|a- geous be, and loy- al, for on|ev- ery hand are foes That|
 [DB]>[D=A] [DB]>[DF] [DG]>[D^F] [DG]>[D=F] | [DE]2 [Fd]2 [Ec]3 [CE] | %5
w: in your heart the songs of hope and|cour- age ring, “Re-|
w: asked of Him who lived and taught in|Ga- li- lee; A|
w: wait with sub- tle charms to lead your|feet a- stray, Yet|
 [CA]>[CG] [CF]>[CE] [CF]>[CE] [A,C]>[CE] | [CA]>[CG] [CF]>E [EG]3 [EG] | %7
w: mem- ber thy Cre- at- or while the|e- vil days come not,” And|
w: full- ness and a bright- ness for your|life in Him you’ll find, And|
w: Christ the world’s Re- deem- er ev- ery|step be- fore you knows, And|
 [=DB]>[Dc] [EB]>[EG] [DB]>[Dc] [EB]>[EA] | [EG]2 [=DF]2 E4 ||"^Refrain" [Ec]2 [Ec]2 [Ec]3 [CE] | %10
w: the Christ of Cal- va- ry to be|your king. *||
w: ty from the sins that lie in wait|for thee. Choose|day! ac- know- ledge|
w: will guide, and guard, and love you all|the way. *||
 [CF]>[CG] [CF]>[CE] [A,C]2 [CE]2 | [Ec]2 [Ec]2 [Ec]3 [CE] | [CF]>[CG] [CF]>E [DG]4 | %13
w: |||
w: Him your Sav- ior; Choose to-|day! your heart a|trib- ute bring Un- to|
w: |||
 [Ed]2 [Ed]2 [Ed]3 [DF] | [DG]>[DA] [DG]>[D^F] [DG]2 [DB]2 | [DE]2 [DF]2 [DG]2 [Fd]2 | %16
w: |||
w: who suf- fered to|re- deem you, Let Him rule|and reign, your King!|
w: |||
 [Ec]3 [=D=B] (3(cEF (3GAB) | [Ec]2 [Ec]2 [Ec]3 [CE] | [CF]>[CG] [CF]>[CE] [A,C]2 [CE]2 | %19
w: |||
w: Choose to- day, * * * * *|love and val- iant|ser- vice Un- to Him belong,|
w: |||
 [Fc]2 [CB]2 [DG]2 [E_G]2 | [DF]6 [DF]>[EG] | [FA]3 [FA] [EG]2 [DF]2 | [CE]2 [CA]2 [Ec]2 [Ee][Fd] | %23
w: ||||
w: Take the vow, and|ev- er faith-|ful be Till you|sing the vic- tor’s song.|
w: ||||
 [Ec]3 [CE] [Ec]2 [DB]2 | [CA]6 |] %25
w: ||
w: ||
w: ||
V:2
 x2 | x8 | x8 | x8 | x8 | x8 | x7/2 E/ x4 | x8 | x4 E4 || x8 | x8 | x8 | x7/2 E/ x4 | x8 | x8 | %15
w: ||||||choose|||||||||
w: ||||||safe-||to-||||Him|||
w: ||||||He|||||||||
 x8 | x4 [Ec]4 | x8 | x8 | x8 | x8 | x8 | x8 | x8 | x6 |] %25
w: ||||||||||
w: |for|||||||||
w: ||||||||||
V:3
 [A,,A,]2 | [A,,E,]>[A,,E,] [A,,A,]>[A,,A,] [A,,A,]>[A,,A,] [A,,E,]>[A,,A,] | %2
 [A,,E,]>[A,,E,] [A,,A,]>[A,,A,] [E,B,]3 [E,G,] | %3
 [E,G,]>[E,^F,] [E,G,]>[E,G,] [E,B,]>[E,=A,] [E,B,]>[E,_A,] | [E,G,]2 [E,G,]2 A,3 [A,,A,] | %5
 [A,,E,]>[A,,E,] [A,,A,]>[A,,A,] [A,,A,]>[A,,A,] [A,,E,]>[A,,A,] | %6
 [A,,E,]>[A,,E,] [A,,A,]>[A,,C] [B,,B,]3 [B,,B,] | %7
 [B,,A,]>[B,,A,] [E,G,]>[E,B,] [B,,A,]>[B,,A,] [E,G,]>[A,,C] | [B,,B,]2 [B,,A,]2 [E,G,]4 || %9
 [A,,A,]2 [A,,A,]2 [A,,A,]3 [A,,A,] | [A,,A,]>[A,,A,] [A,,A,]>[A,,A,] [A,,E,]2 [A,,A,]2 | %11
 [A,,A,]2 [A,,A,]2 [A,,A,]3 [A,,A,] | [A,,A,]>[A,,A,] [A,,A,]>[A,,A,] [B,,E,]4 | %13
 [E,B,]2 [E,B,]2 [E,B,]3 [E,G,] | [E,B,]>[E,B,] [E,B,]>[E,=A,] [E,B,]2 [E,G,]2 | %15
 [E,G,]2 [E,A,]2 [E,B,]2 [E,G,]2 | [A,,A,]3 [A,,A,] [A,,A,]4 | [A,,A,]2 [A,,A,]2 [A,,A,]3 [A,,A,] | %18
 [A,,A,]>[A,,A,] [A,,A,]>[A,,A,] [A,,A,]2 [A,,A,]2 | [A,,A,]2 [A,,E,]2 [B,,E,]2 [C,A,]2 | %20
 [D,A,]6 [D,A,]>[D,A,] | [D,A,]3 [D,A,] [D,A,]2 [D,A,]2 | [A,,A,]2 [A,,A,]2 A,2 [C,A,][D,A,] | %23
 [E,A,]3 [E,A,] [E,A,]2 [E,G,]2 | [A,,A,]6 |] %25
V:4
 x2 | x8 | x8 | x8 | x4 A,3 x | x8 | x8 | x8 | x8 || x8 | x8 | x8 | x8 | x8 | x8 | x8 | x8 | x8 | %18
 x8 | x8 | x8 | x8 | x4 A,2 x2 | x8 | x6 |] %25

